assets/icons/action/new_custom16.svg

<?xml version="1.0"?><svg xmlns="http://www.w3.org/2000/svg" width="52" height="52" viewBox="0 0 52 52"><g fill="#fff"><path d="m43.3 42h-0.8v-17.6c0-0.9-0.7-1.6-1.6-1.6h-1.6c-0.9 0-1.6 0.7-1.6 1.6v17.6h-4.7v-17.6c0-0.9-0.7-1.6-1.6-1.6h-1.6c-0.9 0-1.6 0.7-1.6 1.6v17.6h-4.7v-17.6c0-0.9-0.7-1.6-1.6-1.6h-1.6c-0.9 0-1.6 0.7-1.6 1.6v17.6h-4.7v-17.6c0-0.9-0.7-1.6-1.6-1.6h-1.6c-0.9 0-1.6 0.7-1.6 1.6v17.6h-0.5c-2.6 0-4.7 2.2-4.7 4.8v1.6c0 0.9 0.7 1.6 1.6 1.6h40.9c0.9 0 1.6-0.7 1.6-1.6v-1.6c-0.1-2.6-2.2-4.8-4.8-4.8z m3.9-28.5l-19.4-10.9c-0.5-0.4-1.2-0.6-1.8-0.6-0.6 0-1.3 0.2-1.8 0.6l-19.4 10.9c-0.5 0.3-0.8 0.8-0.8 1.4v1.5c0 0.9 0.7 1.6 1.6 1.6h40.9c0.9 0 1.6-0.7 1.6-1.6v-1.4c-0.1-0.6-0.4-1.2-0.9-1.5z m-21.2 1.3c-2.2 0-3.9-1.8-3.9-4s1.7-4 3.9-4 3.9 1.8 3.9 4-1.7 4-3.9 4z"></path></g></svg>

<svg xmlns="http://www.w3.org/2000/svg" x="0px" y="0px"
	 width="52px" height="52px" viewBox="0 0 52 52" enable-background="new 0 0 52 52" xml:space="preserve">
<g>
	<path fill="#FFFFFF" d="M43.3,42h-0.8V24.4c0-0.9-0.7-1.6-1.6-1.6h-1.6c-0.9,0-1.6,0.7-1.6,1.6V42h-4.7V24.4c0-0.9-0.7-1.6-1.6-1.6
		h-1.6c-0.9,0-1.6,0.7-1.6,1.6V42h-4.7V24.4c0-0.9-0.7-1.6-1.6-1.6h-1.6c-0.9,0-1.6,0.7-1.6,1.6V42h-4.7V24.4c0-0.9-0.7-1.6-1.6-1.6
		h-1.6c-0.9,0-1.6,0.7-1.6,1.6V42H8.7C6.1,42,4,44.2,4,46.8v1.6C4,49.3,4.7,50,5.6,50h40.9c0.9,0,1.6-0.7,1.6-1.6v-1.6
		C48,44.2,45.9,42,43.3,42z"/>
	<path fill="#FFFFFF" d="M47.2,13.5L27.8,2.6C27.3,2.2,26.6,2,26,2l0,0l0,0l0,0l0,0c-0.6,0-1.3,0.2-1.8,0.6L4.8,13.5
		C4.3,13.8,4,14.3,4,14.9v1.5C4,17.3,4.7,18,5.6,18h2.4H26h18.1h2.4c0.9,0,1.6-0.7,1.6-1.6V15C48,14.4,47.7,13.8,47.2,13.5z
		 M26,14.8c-2.2,0-3.9-1.8-3.9-4s1.7-4,3.9-4s3.9,1.8,3.9,4S28.2,14.8,26,14.8z"/>
</g>
</svg>
